X: 1
T: Craigellachie Reel
T: 8x32J 3C (George Will / Bridge of Earn Colln)
P: Bride of the Winds
C: Jim Magill
C: arr. T. Traub 2-12-2018
M: 6/8
L: 1/8
R: Jig
K: C
|: e|"C"g^fg agf|"C"gec G2 c|"G"BdB GAB|"C"cBA "G"G2 ^f|"C"g^fg agf|"C"gec G2 c|"G"BdB GAB |"C"c3 c2 :|
|: G|"C"GEG cBc|"F"ABA "D"d2 c|"G"Bgg g^fg|"Cdim"ag^f "C"gec|"C"GEG cBc|"F"ABA "D"d2 c|"G"Bgg age|"C"c3 c2 :|